X: 23025
T: Last Night's Fun
R: reel
M: 4/4
K: Dmajor
|:"D"ADFD A2AB|"D"ADFD "A"EFGB|"D"ADFD A2 Bd|"G"e2fe "A"dBAB:|
"D"dfff afff|"D"defd "A"egfe|"D"dfff afff|"A"egfe "G"dBAB|
"D"dfff afff|"D"defd "A"e3f|"D"a2bf afeg|"A"fedc "G"BcdB|

